images/select.svg

<?xml version="1.0" encoding="utf-8"?>
<!-- Generated by IcoMoon.io -->
<!DOCTYPE svg PUBLIC "-//W3C//DTD SVG 1.1//EN" "http://www.w3.org/Graphics/SVG/1.1/DTD/svg11.dtd">
<svg version="1.1" xmlns="http://www.w3.org/2000/svg" xmlns:xlink="http://www.w3.org/1999/xlink" width="30" height="30" viewBox="0 0 30 30">
<g>
	<line stroke-width="1" x1="" y1="" x2="" y2="" stroke="#449FDB" opacity=""></line>
</g>
	<path d="M25.402 18v-6h1.538v6h-1.538zM25.402 5.078c0-0.266-0.217-0.483-0.483-0.483h-2.919v-1.54h3.747c0.658 0 1.193 0.535 1.193 1.193v3.752h-1.538v-2.922zM12 3.055h6v1.54h-6v-1.54zM4.598 5.078v2.922h-1.54v-3.752c0-0.658 0.534-1.193 1.193-1.193h3.749v1.54h-2.919c-0.268-0.001-0.483 0.217-0.483 0.483zM4.598 18h-1.54v-6h1.54v6zM4.598 22v2.915c0 0.269 0.216 0.483 0.483 0.483h2.919v1.54h-3.75c-0.659 0-1.193-0.535-1.193-1.193v-3.745h1.541zM18 26.938h-6v-1.54h6v1.54zM25.402 24.915v-2.915h1.538v3.745c0 0.658-0.535 1.193-1.193 1.193h-3.747v-1.54h2.919c0.267 0 0.483-0.214 0.483-0.483z" fill="#000000"></path>
</svg>

<?xml version="1.0" encoding="UTF-8" standalone="no"?>
<!-- Created with Inkscape (http://www.inkscape.org/) -->

<svg
   xmlns:dc="http://purl.org/dc/elements/1.1/"
   xmlns:cc="http://creativecommons.org/ns#"
   xmlns:rdf="http://www.w3.org/1999/02/22-rdf-syntax-ns#"
   xmlns:svg="http://www.w3.org/2000/svg"
   xmlns="http://www.w3.org/2000/svg"
   xmlns:inkscape="http://www.inkscape.org/namespaces/inkscape"
   version="1.1"
   width="30"
   height="30"
   viewBox="0 0 30 30"
   id="svg2">
  <metadata
     id="metadata10">
    <rdf:RDF>
      <cc:Work
         rdf:about="">
        <dc:format>image/svg+xml</dc:format>
        <dc:type
           rdf:resource="http://purl.org/dc/dcmitype/StillImage" />
      </cc:Work>
    </rdf:RDF>
  </metadata>
  <defs
     id="defs8" />
  <path
     d="m 25.402,18 v -6 h 1.538 v 6 h -1.538 z m 0,-12.922 c 0,-0.266 -0.217,-0.483 -0.483,-0.483 H 22 v -1.54 h 3.747 c 0.658,0 1.193,0.535 1.193,1.193 V 8 H 25.402 V 5.078 z M 12,3.055 h 6 v 1.54 H 12 V 3.055 z M 4.598,5.078 V 8 H 3.058 V 4.248 C 3.058,3.59 3.592,3.055 4.251,3.055 H 8 v 1.54 H 5.08 c -0.267,0 -0.482,0.217 -0.482,0.483 z m 0,12.922 h -1.54 v -6 h 1.54 v 6 z m 0,4 v 2.915 c 0,0.27 0.216,0.483 0.483,0.483 H 8 v 1.54 H 4.25 c -0.66,0 -1.193,-0.535 -1.193,-1.193 V 22 h 1.54 z M 18,26.938 h -6 v -1.54 h 6 v 1.54 z m 7.402,-2.023 V 22 h 1.538 v 3.745 c 0,0.658 -0.535,1.193 -1.193,1.193 H 22 v -1.54 h 2.92 c 0.266,0 0.482,-0.214 0.482,-0.483 z"
     inkscape:connector-curvature="0"
     id="path4" />
</svg>
